X: 2
T: Pride Of Erin, The
M: 6/8
L: 1/8
R: jig
K: Edor
|: B, |\ 
EB,E GFE | ede BAG | FED ded | BAF AFD | 
EB,E GFE | ede BAG | FED ded | BAF E2 :|
|: B |\ 
eBe gfe | dB^c def | edB BAF | EDB, DB,D | 
EDB, GFE | ede BAG | FED ded | BAF E2 :|
